X: 859
T: Sally Goodin
C:Traditional
B: jims roots
M:4/4
L:1/8
Q: 1/4=100
K:A
V:1 
%Q:520
|: "A"AcBc A2AB | cABA EFAB | cBcB ABAF | "E"ECEA "A"FA3 |
"A"AcBc A2 AB | cABA EFAB | cecB ABAF | "E"ECEA "A"FA3:|
|: "A"ABcd e2 cd | efed c2 cd | efed cBAc | "E"BAGB "A"A4 |
"A"ABcd e^def | ga=gf edce | ae=gf edcd | "E"efed "A"cB A2:|
% abcbook-tune_id 6298c28798aa753dece91b34


% abcbook-boost 0
% abcbook-tablature 
% abcbook-transpose 
% abcbook-lastupdated 1654178440036
% abcbook-soundfonts 
% abcbook-repeats 1


